!!!COM: Bach, Johann Sebastian
!!!CDT: 1685/3//-1750/7/28/
!!!OTL@@DE: Meinen Jesum lass ich nicht
!!!AGN: 4-Part Chorale
!!!SCT: BH 299
!!!SCT: BWV 380
**harm	**root	**kern	**kern	**kern	**kern
!	!	!bass	!tenor	!alto	!soprno
*	*Iorgan	*Iorgan	*Iorgan	*Iorgan	*Iorgan
*M4/4	*M4/4	*M4/4	*M4/4	*M4/4	*M4/4
*met(c)	*met(c)	*met(c)	*met(c)	*met(c)	*met(c)
*MM60	*MM60	*MM60	*MM60	*MM60	*MM60
*k[b-e-a-]	*k[b-e-a-]	*k[b-e-a-]	*k[b-e-a-]	*k[b-e-a-]	*k[b-e-a-]
*E-:	*E-:	*E-:	*E-:	*E-:	*E-:
=1-	=1-	=1-	=1-	=1-	=1-
I	4EE-	8E-	4e-	4g	4b-
.	.	8F	.	.	.
Ib	4EE-	8G	4e-	4g	4b-
.	.	8E-	.	.	.
IV	4AA-	8A-	4c	4e-	4cc
.	.	8G	.	.	.
iib	4FF	8A-	4f	4a-	4cc
.	.	8F	.	.	.
=2	=2	=2	=2	=2	=2
V7	4BB-	4B-	8f	8a-	4dd
.	.	.	8e-	8g	.
V7	4BB-	4BB-	8f	4a-	8dd
.	.	.	8d	.	16ee-
.	.	.	.	.	16ff
I;	2EE-;	2E-;	2B-;	2g;	2ee-;
=3	=3	=3	=3	=3	=3
V	4BB-	8BB-	8d	4b-	4ff
.	.	8C	8e-	.	.
Vb	4BB-	8D	8f	8b-	4ff
.	.	8BB-	8d	8a-	.
vi	4CC	8C	8d	4.g	4ee-
.	.	8D	16c	.	.
.	.	.	16Bn	.	.
vi	8CC	8E-	4c	.	4ee-
V7/V	8FF	8F	.	8an	.
=4	=4	=4	=4	=4	=4
iii	4GG	8G	4B-	8b-	4dd
.	.	8F	.	8an	.
I	8EE-	8E-	4B-	8g	8cc
vi7	8CC	8C	.	8e-	16dd
.	.	.	.	.	16ee-
V/V	4FF	4F	8B-	4.f	2cc
.	.	.	8G	.	.
V/V	4FF	4FF	4An	.	.
.	.	.	.	8e-	.
=5	=5	=5	=5	=5	=5
V;	2BB-;	2BB-;	2F;	2d;	2b-;
I	4EE-	8E-	8G	4e-	4b-
.	.	8F	8A-y	.	.
Ib	4EE-	8G	8B-	4e-	4b-
.	.	8E-	8G	.	.
=6	=6	=6	=6	=6	=6
IV	4AA-	8A-	8A-	4e-	4cc
.	.	8G	8B-	.	.
ii	4FF	8F	4c	4a-	4cc
.	.	8E-	.	.	.
V7b	8BB-	8D	8F	8a-	4b-
viio/ii	8EE	8En	8G	8g	.
ii	4FF	4F	8A-	4f	8a-
.	.	.	8B-	.	8g
!!linebreak: 2
=7	=7	=7	=7	=7	=7
VI;	2CC;	2C;	2c;	2en;	2g;
viiob/II	4EE	8G	8B-	8e	4b-
.	.	8F	8A-	8f	.
V7b/II	4CC	8En	4G	8g	4b-
.	.	8C	.	8e	.
=8	=8	=8	=8	=8	=8
ii	4FF	8F	4A-	4c	4a-
.	.	8E-y	.	.	.
V7b	4BB-	8D	4B-	8f	4a-
.	.	8BB-	.	8d	.
I	4EE-	8E-	4B-	4e-	4g
.	.	8G	.	.	.
ii7b	8FF	8A-	8c	4e-	8f
ii7	8FF	8F	8A-	.	16g
.	.	.	.	.	16a-
=9	=9	=9	=9	=9	=9
V	4BB-	4B-	8B-	4e-	2f
.	.	.	8G	.	.
V7	4BB-	4BB-	4A-	4d	.
I;	2EE-;	2E-;	2G;	2B-;	2e-;
=10	=10	=10	=10	=10	=10
I	4EE-	8e-	4e-	4g	4b-
.	.	8d-	.	.	.
vi7	4CC	8c	4e-	4g	4b-
.	.	8B-	.	.	.
IV	4AA-	8A-	4e-	4a-	4cc
.	.	8G	.	.	.
ii	4FF	8F	4f	8a-	4cc
.	.	8E-	.	8g	.
=11	=11	=11	=11	=11	=11
viiob/vi	4BB	8D	8Bn	4f	4dd
.	.	8C	8c	.	.
V/vi	8GG	8BBn	8d	4g	8dd
V/vi	8GG	8GG	8Bn	.	16ee-
.	.	.	.	.	16ff
vi;	2CC;	2C;	2c;	2g;	2ee-;
=12	=12	=12	=12	=12	=12
I	4EE-	8E-	4G	4e-	4b-
.	.	8D-	.	.	.
vi7	4CC	8C	4G	4e-	8b-
.	.	8BB-	.	.	16cc
.	.	.	.	.	16dd-
IV	8AA-	8AA-	8A-	8e-	8cc
V	8BB-	8BB-	8F	8d	8b-
IVb	8AA-	8C	8E-	4e-	8a-
Ic	8EE-	8BB-	8B-	.	8g
=13	=13	=13	=13	=13	=13
ii7b	4FF	4AA-	4c	4e-	8f
.	.	.	.	.	16g
.	.	.	.	.	16a-
V	4BB-	4BB-	8B-	4d	4f
.	.	.	8A-	.	.
I;	2EE-;	2E-;	2G;	2B-;	2e-;
==	==	==	==	==	==
*-	*-	*-	*-	*-	*-
!!chor2scor: -l 2 -s 0.6 -o %b.pmx
!!!YEC: Copyright 1994, David Huron
!!!YEC: Changes/Additions 2001 by Craig Stuart Sapp
!!!YEN: United States of America
!!!SMA: 371 Bach Chorales, edited by Ludwig Erk, C.F. Peters
!!!PDT: 1850, 1865
!!!ONB: Harmony and Root analysis done manually
